dist/img/svg/services/ventilation/forced.svg

<svg width="20" height="20" viewBox="0 0 20 20" fill="none" xmlns="http://www.w3.org/2000/svg">
<g clip-path="url(#clip0_165_3)">
<path d="M10 0.625C8.1458 0.625 6.33324 1.17483 4.79153 2.20497C3.24982 3.23511 2.04821 4.69929 1.33863 6.41234C0.629062 8.1254 0.443406 10.0104 0.805142 11.829C1.16688 13.6475 2.05976 15.318 3.37088 16.6291C4.682 17.9402 6.35246 18.8331 8.17103 19.1949C9.98961 19.5566 11.8746 19.3709 13.5877 18.6614C15.3007 17.9518 16.7649 16.7502 17.795 15.2085C18.8252 13.6668 19.375 11.8542 19.375 10C19.3722 7.51446 18.3836 5.13152 16.626 3.37398C14.8685 1.61644 12.4855 0.627812 10 0.625ZM10 18.75C8.26942 18.75 6.57769 18.2368 5.13876 17.2754C3.69983 16.3139 2.57833 14.9473 1.91606 13.3485C1.25379 11.7496 1.08051 9.99029 1.41813 8.29296C1.75575 6.59563 2.58911 5.03652 3.81282 3.81282C5.03653 2.58911 6.59563 1.75575 8.29296 1.41813C9.9903 1.08051 11.7496 1.25379 13.3485 1.91605C14.9473 2.57832 16.3139 3.69983 17.2754 5.13876C18.2368 6.57769 18.75 8.26941 18.75 10C18.7474 12.3198 17.8247 14.5439 16.1843 16.1843C14.5439 17.8247 12.3199 18.7474 10 18.75Z" fill="#78C081"/>
<path d="M10 3.125C8.64026 3.125 7.31105 3.52821 6.18046 4.28365C5.04987 5.03908 4.16868 6.11281 3.64833 7.36905C3.12798 8.62529 2.99183 10.0076 3.2571 11.3412C3.52238 12.6749 4.17716 13.8999 5.13864 14.8614C6.10013 15.8228 7.32514 16.4776 8.65876 16.7429C9.99238 17.0082 11.3747 16.872 12.631 16.3517C13.8872 15.8313 14.9609 14.9501 15.7164 13.8195C16.4718 12.689 16.875 11.3597 16.875 10C16.873 8.17727 16.148 6.42977 14.8591 5.14091C13.5702 3.85204 11.8227 3.12705 10 3.125ZM10 16.25C8.76387 16.25 7.5555 15.8834 6.52769 15.1967C5.49988 14.5099 4.6988 13.5338 4.22576 12.3918C3.75271 11.2497 3.62894 9.99307 3.8701 8.78069C4.11125 7.5683 4.70651 6.45466 5.58059 5.58058C6.45466 4.7065 7.56831 4.11125 8.78069 3.87009C9.99307 3.62893 11.2497 3.75271 12.3918 4.22575C13.5338 4.6988 14.5099 5.49988 15.1967 6.52769C15.8834 7.55549 16.25 8.76387 16.25 10C16.2481 11.657 15.589 13.2456 14.4173 14.4173C13.2456 15.589 11.657 16.2481 10 16.25Z" fill="#78C081"/>
<path d="M11.4804 8.85362C11.4244 8.78123 11.3632 8.71301 11.2973 8.64949C11.4029 8.34037 11.5486 8.04646 11.7308 7.77533C11.8292 7.6328 11.9186 7.50768 11.9989 7.39537C12.3776 6.86515 12.6062 6.54499 12.6062 5.99615C12.6062 5.2039 11.6702 4.34896 10.1582 4.34896C9.7308 4.32689 9.30402 4.40262 8.91032 4.57039C8.51663 4.73817 8.1664 4.99355 7.88631 5.31712C7.65457 5.57078 7.49682 5.88314 7.43021 6.2202C7.3636 6.55727 7.39068 6.90615 7.5085 7.2289L8.26603 9.28868C8.23132 9.37414 8.20303 9.46207 8.18141 9.55174C7.86095 9.61482 7.53361 9.6356 7.20775 9.61355C7.03503 9.59952 6.882 9.58471 6.7445 9.57127C6.09616 9.50843 5.70462 9.47027 5.22947 9.74493C5.03435 9.87562 4.87358 10.0514 4.76075 10.2573C4.64791 10.4633 4.58633 10.6934 4.58122 10.9282C4.5435 11.547 4.69926 12.1622 5.02691 12.6886C5.2215 13.0698 5.50049 13.4015 5.84265 13.6586C6.18481 13.9157 6.58112 14.0914 7.00141 14.1722C7.13491 14.1975 7.27049 14.2104 7.40637 14.2106C7.68091 14.2141 7.95272 14.1559 8.20181 14.0404C8.45091 13.925 8.67095 13.7551 8.84575 13.5434L10.252 11.8562C10.3433 11.8441 10.4335 11.8252 10.522 11.7998C10.737 12.0451 10.9183 12.318 11.0612 12.6113C11.1355 12.7678 11.1992 12.9078 11.2562 13.0335C11.5262 13.6266 11.689 13.9846 12.1643 14.2591C12.3454 14.3599 12.5499 14.4111 12.7571 14.4077C13.4225 14.4077 14.2465 13.9469 14.8149 12.9627C15.0477 12.6036 15.1955 12.1961 15.247 11.7712C15.2986 11.3463 15.2525 10.9153 15.1123 10.5109C15.0085 10.1834 14.8169 9.89063 14.5583 9.66442C14.2997 9.43822 13.984 9.28726 13.6456 9.22796L11.4804 8.85362ZM9.99997 11.2501C9.75274 11.2501 9.51107 11.1767 9.30551 11.0394C9.09994 10.902 8.93973 10.7068 8.84512 10.4784C8.75051 10.25 8.72576 9.99867 8.77399 9.75619C8.82222 9.51371 8.94127 9.29099 9.11609 9.11617C9.2909 8.94135 9.51363 8.8223 9.7561 8.77407C9.99858 8.72584 10.2499 8.75059 10.4783 8.8452C10.7067 8.93981 10.902 9.10003 11.0393 9.30559C11.1767 9.51115 11.25 9.75283 11.25 10.0001C11.2496 10.3315 11.1178 10.6492 10.8834 10.8835C10.6491 11.1179 10.3314 11.2497 9.99997 11.2501ZM8.36056 5.72408C8.58227 5.46916 8.85983 5.26886 9.17163 5.13877C9.48343 5.00868 9.82104 4.95233 10.1582 4.97408C11.3321 4.97408 11.9812 5.57849 11.9812 5.99627C11.9812 6.32999 11.8713 6.49874 11.4903 7.03218C11.4083 7.14693 11.3171 7.27465 11.2166 7.42037C11.033 7.69184 10.8809 7.98329 10.7631 8.28911C10.4221 8.13577 10.0429 8.08853 9.67463 8.15351C9.30641 8.2185 8.96624 8.39271 8.69831 8.65352L8.09519 7.01324C8.01744 6.79462 8.00107 6.55887 8.04785 6.3316C8.09464 6.10433 8.20279 5.89422 8.36056 5.72408ZM8.36559 13.1432C8.21514 13.3198 8.01919 13.4518 7.79901 13.5249C7.57884 13.598 7.34284 13.6094 7.11666 13.5578C6.785 13.4933 6.47272 13.3531 6.20414 13.1481C5.93556 12.9431 5.71793 12.6789 5.56822 12.376C5.30938 11.9587 5.18234 11.4731 5.20369 10.9826C5.20387 10.8485 5.2344 10.7162 5.29298 10.5956C5.35157 10.4751 5.43669 10.3693 5.54197 10.2863C5.83081 10.1191 6.03206 10.1302 6.68422 10.1934C6.82462 10.207 6.98087 10.2222 7.15741 10.2364C7.48385 10.2599 7.81192 10.2461 8.13522 10.1951C8.17481 10.5666 8.32429 10.9179 8.56457 11.204C8.80484 11.4901 9.12498 11.6981 9.48406 11.8013L8.36559 13.1432ZM14.5227 10.7182C14.6326 11.0377 14.6673 11.3783 14.6241 11.7134C14.5809 12.0485 14.4609 12.3691 14.2735 12.6503C13.6868 13.6665 12.8382 13.9266 12.4768 13.7178C12.1878 13.551 12.0967 13.3716 11.8252 12.7748C11.7668 12.6463 11.7018 12.5035 11.6259 12.3435C11.4823 12.0486 11.3056 11.7709 11.0992 11.5159C11.4033 11.2981 11.6346 10.9935 11.7627 10.642C11.8908 10.2905 11.9098 9.90852 11.8171 9.54608L13.539 9.84383C13.7672 9.88578 13.9795 9.98945 14.1529 10.1436C14.3264 10.2977 14.4542 10.4964 14.5227 10.7181V10.7182Z" fill="#78C081"/>
<path d="M10 2.5C10.1726 2.5 10.3125 2.36009 10.3125 2.1875C10.3125 2.01491 10.1726 1.875 10 1.875C9.82741 1.875 9.6875 2.01491 9.6875 2.1875C9.6875 2.36009 9.82741 2.5 10 2.5Z" fill="#78C081"/>
<path d="M10 18.125C10.1726 18.125 10.3125 17.9851 10.3125 17.8125C10.3125 17.6399 10.1726 17.5 10 17.5C9.82741 17.5 9.6875 17.6399 9.6875 17.8125C9.6875 17.9851 9.82741 18.125 10 18.125Z" fill="#78C081"/>
<path d="M2.1875 10.3125C2.36009 10.3125 2.5 10.1726 2.5 10C2.5 9.82741 2.36009 9.6875 2.1875 9.6875C2.01491 9.6875 1.875 9.82741 1.875 10C1.875 10.1726 2.01491 10.3125 2.1875 10.3125Z" fill="#78C081"/>
<path d="M17.8125 10.3125C17.9851 10.3125 18.125 10.1726 18.125 10C18.125 9.82741 17.9851 9.6875 17.8125 9.6875C17.6399 9.6875 17.5 9.82741 17.5 10C17.5 10.1726 17.6399 10.3125 17.8125 10.3125Z" fill="#78C081"/>
</g>
<defs>
<clipPath id="clip0_165_3">
<rect width="20" height="20" fill="white"/>
</clipPath>
</defs>
</svg>

<svg width="20" height="20" fill="none" xmlns="http://www.w3.org/2000/svg"><g clip-path="url(#clip0_165_3)" fill="#78C081"><path d="M10 .625A9.375 9.375 0 1019.375 10 9.385 9.385 0 0010 .625zm0 18.125A8.75 8.75 0 1118.75 10 8.76 8.76 0 0110 18.75z"/><path d="M10 3.125A6.875 6.875 0 1016.875 10 6.882 6.882 0 0010 3.125zm0 13.125A6.25 6.25 0 1116.25 10 6.257 6.257 0 0110 16.25z"/><path d="M11.48 8.854a1.888 1.888 0 00-.183-.205c.106-.309.252-.603.434-.874.098-.142.188-.267.268-.38.379-.53.607-.85.607-1.399 0-.792-.936-1.647-2.448-1.647a2.813 2.813 0 00-2.272.968 1.879 1.879 0 00-.378 1.912l.758 2.06a1.854 1.854 0 00-.085.263c-.32.063-.647.084-.973.062a27.51 27.51 0 01-.463-.043c-.649-.063-1.04-.1-1.516.174a1.463 1.463 0 00-.648 1.183 2.987 2.987 0 00.446 1.76A2.813 2.813 0 007 14.173c.134.025.27.038.405.039a1.835 1.835 0 001.44-.668l1.406-1.687c.091-.012.181-.03.27-.056.215.245.396.518.54.811.074.157.137.297.194.422.27.594.433.952.908 1.226.181.1.386.152.593.149.665 0 1.49-.461 2.058-1.445a2.812 2.812 0 00.297-2.452 1.879 1.879 0 00-1.466-1.283l-2.166-.374zM10 11.25a1.25 1.25 0 110-2.5 1.25 1.25 0 010 2.5zM8.36 5.724a2.195 2.195 0 011.798-.75c1.174 0 1.823.604 1.823 1.022 0 .334-.11.503-.49 1.036-.083.115-.174.243-.274.388a4.327 4.327 0 00-.454.87 1.864 1.864 0 00-2.065.364l-.603-1.64a1.27 1.27 0 01.266-1.29zm.006 7.42a1.27 1.27 0 01-1.25.414 2.194 2.194 0 01-1.548-1.182 2.442 2.442 0 01-.364-1.393.888.888 0 01.338-.697c.289-.167.49-.156 1.142-.093.14.014.297.03.473.043.327.024.655.01.978-.04a1.878 1.878 0 001.35 1.605l-1.12 1.342zm6.157-2.426a2.196 2.196 0 01-.25 1.932c-.586 1.016-1.435 1.277-1.796 1.068-.29-.167-.38-.346-.652-.943a28.065 28.065 0 00-.2-.431 4.325 4.325 0 00-.526-.828 1.857 1.857 0 00.718-1.97l1.722.298a1.27 1.27 0 01.984.874zM10 2.5a.312.312 0 100-.625.312.312 0 000 .625zm0 15.625a.312.312 0 100-.625.312.312 0 000 .625zm-7.812-7.812a.312.312 0 100-.625.312.312 0 000 .624zm15.625 0a.312.312 0 100-.625.312.312 0 000 .624z"/></g><defs><clipPath id="clip0_165_3"><path fill="#fff" d="M0 0h20v20H0z"/></clipPath></defs></svg>
